X:4002
T:Deck the Halls
R:March
C:Trad.
O:Wales
Z:Paul Hardy's Xmas Tunebook 2019 (see www.paulhardy.net). Creative Commons cc by-nc-sa licenced.
M:4/4
L:1/8
Q:1/4=160
K:D
"D"A3 G F2 E2|D2 E2 F2 D2|"A"EFGE "D"F3 E|"A"D2 C2 "D"D4:|
"A"E3 F G2 E2|"D"F3 G "A"A2 E2|"D"FG A2 "Bm"Bc d2|"E7"c2 B2 "A"A4|
"D"A3 G F2 E2|D2 E2 F2 D2|"G"BBBB "D"A3 G|"A"F2 E2 "D"D4|]
W:Deck the halls with boughs of holly, Fa la la la la, la la la la,
W:'Tis the season to be jolly, Fa la la la la, la la la la,
W:Don we now our gay apparel, Fa la la la la, la la la la,
W:Troll the ancient Yule-tide carol, Fa la la la la, la la la la,
% --------------------------------- E ---------------------------------------
% --------------------------------- F ---------------------------------------

